X:84
T:Polska ur Carl Johan Johanssons notbok
T:(SmM I:84)
R:Polska
S:Carl Johan Johansson
O:Södra Flaka, Djursdala, Småland
B:Småländsk Musiktradition
N:Finns i Smus M42.
M:3/4
L:1/8
K:G
GB dB cA|BA G2 g2|gf ee ce|ge d2 z2:|
|:Bg e2 ce|ge d2 Bd|gd BB dd|cA G2 z2:|

